public/assets/techs/figma.svg

<svg width="20" height="20" viewBox="0 0 20 20" fill="none" xmlns="http://www.w3.org/2000/svg">
<path d="M13.9799 7.34379C14.5788 7.04556 15.0594 6.5537 15.3438 5.94801C15.6281 5.34231 15.6994 4.65833 15.5461 4.00702C15.3928 3.35572 15.024 2.7753 14.4994 2.35995C13.9749 1.94459 13.3253 1.71867 12.6563 1.71883H7.34375C6.67466 1.71867 6.02514 1.94459 5.50057 2.35995C4.97601 2.7753 4.60717 3.35572 4.45391 4.00702C4.30065 4.65833 4.37196 5.34231 4.65626 5.94801C4.94056 6.5537 5.42117 7.04556 6.02013 7.34379C5.52598 7.58969 5.11022 7.96856 4.81959 8.43781C4.52897 8.90706 4.375 9.44807 4.375 10C4.37501 10.552 4.52898 11.093 4.81961 11.5622C5.11025 12.0315 5.52601 12.4104 6.02017 12.6562C5.54692 12.8921 5.14527 13.2501 4.85674 13.6932C4.56822 14.1363 4.4033 14.6485 4.37904 15.1767C4.35478 15.7049 4.47206 16.23 4.71876 16.6977C4.96545 17.1654 5.3326 17.5587 5.78224 17.837C6.23188 18.1152 6.74768 18.2683 7.27631 18.2804C7.80494 18.2925 8.32721 18.1632 8.7891 17.9058C9.251 17.6484 9.63575 17.2723 9.90358 16.8163C10.1714 16.3604 10.3126 15.8412 10.3125 15.3125V11.8189C10.5857 12.1713 10.9349 12.4575 11.3339 12.6564C11.733 12.8552 12.1718 12.9616 12.6176 12.9676C13.0634 12.9736 13.5049 12.8791 13.9092 12.691C14.3134 12.5029 14.6701 12.2262 14.9527 11.8813C15.2354 11.5365 15.4366 11.1323 15.5416 10.699C15.6466 10.2657 15.6525 9.81423 15.5591 9.37826C15.4656 8.9423 15.2751 8.533 15.0017 8.18078C14.7283 7.82856 14.379 7.54248 13.9799 7.34379V7.34379ZM15 4.68758C14.9993 5.30869 14.7524 5.90419 14.3133 6.34353C13.8742 6.78287 13.2789 7.03019 12.6578 7.03129L12.6563 7.03125L12.6532 7.03133L10.3125 7.03125V2.34383H12.6563C13.2776 2.34453 13.8734 2.59169 14.3128 3.03107C14.7521 3.47046 14.9993 4.06619 15 4.68758V4.68758ZM10.8373 7.65627C10.6413 7.80876 10.465 7.98505 10.3125 8.18107V7.65626L10.8373 7.65627ZM5 4.68758C5.00071 4.06619 5.24786 3.47046 5.68725 3.03107C6.12664 2.59169 6.72237 2.34453 7.34375 2.34383H9.6875V7.03125H7.34375L7.34227 7.03129C6.72115 7.03019 6.1258 6.78287 5.68674 6.34353C5.24767 5.9042 5.00072 5.3087 5 4.68758V4.68758ZM7.34375 17.6562C7.03581 17.6564 6.73084 17.596 6.44627 17.4783C6.16169 17.3606 5.9031 17.188 5.68526 16.9704C5.46743 16.7527 5.29462 16.4943 5.17672 16.2098C5.05881 15.9253 4.99813 15.6204 4.99813 15.3125C4.99813 15.0045 5.05881 14.6996 5.17672 14.4151C5.29462 14.1306 5.46743 13.8722 5.68526 13.6545C5.9031 13.4369 6.16169 13.2643 6.44627 13.1466C6.73084 13.0289 7.03581 12.9685 7.34375 12.9687L9.6875 12.9687V15.3125C9.6868 15.9338 9.43964 16.5296 9.00025 16.9689C8.56087 17.4083 7.96514 17.6555 7.34375 17.6562V17.6562ZM9.6875 12.3437L7.34375 12.3437C6.72235 12.3436 6.12643 12.0968 5.687 11.6574C5.24757 11.218 5.00061 10.6222 5.00041 10.0008C5.00022 9.37936 5.2468 8.78332 5.68595 8.34367C6.1251 7.90403 6.72087 7.65678 7.34227 7.65629L7.34375 7.65633L9.6875 7.65626V12.3437ZM12.6563 12.3437C12.0351 12.3436 11.4393 12.0967 11 11.6576C10.5607 11.2184 10.3137 10.6227 10.3133 10.0015C10.3129 9.38034 10.5591 8.78439 10.9979 8.34464C11.4366 7.90489 12.032 7.65732 12.6532 7.65633H12.6563L12.6577 7.65629C13.2789 7.65707 13.8744 7.90445 14.3134 8.34406C14.7523 8.78367 14.9987 9.37955 14.9985 10.0008C14.9983 10.622 14.7515 11.2177 14.3123 11.657C13.8731 12.0964 13.2775 12.3434 12.6563 12.3437V12.3437Z" fill="#EEEEEE"/>
</svg>

<svg xmlns="http://www.w3.org/2000/svg" width="20" height="20" fill="none" xmlns:v="https://vecta.io/nano"><path d="M13.98 7.344a2.97 2.97 0 0 0 1.566-3.337 2.97 2.97 0 0 0-2.89-2.288H7.344a2.97 2.97 0 0 0-2.89 2.288A2.97 2.97 0 0 0 6.02 7.344c-.494.246-.91.625-1.201 1.094S4.375 9.448 4.375 10s.154 1.093.445 1.562.706.848 1.201 1.094a2.97 2.97 0 0 0-1.641 2.521 2.97 2.97 0 0 0 1.403 2.66 2.97 2.97 0 0 0 3.007.069 2.97 2.97 0 0 0 1.523-2.593v-3.494c.273.352.622.639 1.021.838a2.97 2.97 0 0 0 1.284.311c.446.006.887-.088 1.292-.277a2.97 2.97 0 0 0 1.043-.81c.283-.345.484-.749.589-1.182a2.97 2.97 0 0 0-.54-2.518 2.97 2.97 0 0 0-1.022-.837zM15 4.688c-.001.621-.248 1.217-.687 1.656s-1.034.687-1.655.688h-.002-.003-2.341V2.344h2.344c.621.001 1.217.248 1.656.687s.687 1.035.687 1.657zm-4.163 2.969c-.196.152-.372.329-.525.525v-.525h.525zM5 4.688c.001-.621.248-1.217.687-1.657s1.035-.687 1.657-.687h2.344v4.687H7.344h-.001c-.621-.001-1.216-.248-1.656-.688S5.001 5.309 5 4.688zm2.344 12.969c-.308 0-.613-.06-.897-.178s-.543-.29-.761-.508-.391-.476-.509-.761-.179-.589-.179-.897.061-.613.179-.897.291-.543.509-.761.476-.39.761-.508.59-.178.897-.178h2.344v2.344c-.001.621-.248 1.217-.687 1.656s-1.035.687-1.656.687zm2.344-5.312H7.344c-.621 0-1.217-.247-1.657-.686S5.001 10.622 5 10.001s.246-1.217.686-1.657 1.035-.687 1.656-.687h.001 2.344v4.687zm2.969 0c-.621 0-1.217-.247-1.656-.686s-.686-1.035-.687-1.656.246-1.217.685-1.657 1.034-.687 1.655-.688h.003.001c.621.001 1.217.248 1.656.688s.685 1.035.685 1.657-.247 1.217-.686 1.656-1.035.686-1.656.687z" fill="#a259ff"/></svg>
